/* XPM */
static char *minisys3[] = {
/* columns rows colors chars-per-pixel */
"48 32 7 1",
"  c None",
". c #000000",
"X c #969696",
"o c #979797",
"O c #9B9F8F",
"+ c #E0E0E0",
"@ c #E3E3E3",
/* pixels */
"                                                ",
"                                                ",
"   ..........      ..........      ..........   ",
"  .X@++++++@X.    .X@++++++@X.    .X@++++++@X.  ",
"  .@o......o@.    .@o......o@.    .@o......o@.  ",
"  .+........+.    .+........+.    .+........+.  ",
"  .+..OOOO..+.    .+..OOOO..+.    .+..OOOO..+.  ",
"  .+..OOOO..+.    .+..OOOO..+.    .+..OOOO..+.  ",
"  .+..OOOO..+.    .+..OOOO..+.    .+..OOOO..+.  ",
"  .+..OOOO..+.    .+..OOOO..+.    .+..OOOO..+.  ",
"  .+..OOOO..+.    .+..OOOO..+.    .+..OOOO..+.  ",
"  .+..OOOO..+.    .+..OOOO..+.    .+..OOOO..+.  ",
"  .+..OOOO..+.    .+..OOOO..+.    .+..OOOO..+.  ",
"  .+..OOOO..+.    .+..OOOO..+.    .+..OOOO..+.  ",
"  .+..OOOO..+.    .+..OOOO..+.    .+..OOOO..+.  ",
"  .+..OOOO..+.    .+..OOOO..+.    .+..OOOO..+.  ",
"  .+..OOOO..+.    .+..OOOO..+.    .+..OOOO..+.  ",
"  .+..OOOO..+.    .+..OOOO..+.    .+..OOOO..+.  ",
"  .+..OOOO..+.    .+..OOOO..+.    .+..OOOO..+.  ",
"  .+..OOOO..+.    .+..OOOO..+.    .+..OOOO..+.  ",
"  .+..OOOO..+.    .+..OOOO..+.    .+..OOOO..+.  ",
"  .+..OOOO..+.    .+..OOOO..+.    .+..OOOO..+.  ",
"  .+..OOOO..+.    .+..OOOO..+.    .+..OOOO..+.  ",
"  .+..OOOO..+.    .+..OOOO..+.    .+..OOOO..+.  ",
"  .+..OOOO..+.    .+..OOOO..+.    .+..OOOO..+.  ",
"  .+..OOOO..+.    .+..OOOO..+.    .+..OOOO..+.  ",
"  .+........+.    .+........+.    .+........+.  ",
"  .@o......o@.    .@o......o@.    .@o......o@.  ",
"  .X@++++++@X.    .X@++++++@X.    .X@++++++@X.  ",
"   ..........      ..........      ..........   ",
"                                                ",
"                                                "
};
