/* XPM */
static char *minisys3[] = {
/* columns rows colors chars-per-pixel */
"24 16 4 1",
"  c None",
". c #000000",
"X c #00FF00",
"o c #FFFF00",
/* pixels */
"                        ",
"  ....    ....    ....  ",
" ......  ......  ...... ",
" ..oo..  ..oo..  ..oo.. ",
" ..oo..  ..oo..  ..oo.. ",
" ..oo..  ..oo..  ..oo.. ",
" ..oo..  ..oo..  ..oo.. ",
" ..oo..  ..oo..  ..oo.. ",
" ..XX..  ..XX..  ..XX.. ",
" ..XX..  ..XX..  ..XX.. ",
" ..XX..  ..XX..  ..XX.. ",
" ..XX..  ..XX..  ..XX.. ",
" ..XX..  ..XX..  ..XX.. ",
" ......  ......  ...... ",
"  ....    ....    ....  ",
"                        "
};
